X:1
T:Weybridge, CM
T:Walter Hay Sangster, 1868
T:Weybridge, CM
T:Public Domain
C:Walter Hay Sangster, 1868
Z:Public Domain
%%score ( 1 2 ) ( 3 4 )
L:1/8
M:none
K:Eb
V:1 treble 
V:2 treble 
V:3 bass 
V:4 bass 
V:1
 E2 | [EG]2 [EG]2 [CF]2 G,A, | [B,E]2 [DF]2 [EG]2 [FG]2 | [Ee]2 [Ad]2 c2 z F x | [Ec]6 [B,E]2 | %5
 E2 [DE]2 [CE]2 [EB]2 | ED [EG]2 [DF]2 [CA]2 | [EB]2 E2 [EG]2 [DF]2 x | E6 |] %9
V:2
 E2 | x6 E2 | x8 | x4 G3 =B2 | x8 | E2 x6 | A2 x6 | x2 E2 x5 | E6 |] %9
V:3
 [E,G,]2 | [E,B,]2 [G,,B,]2 [A,,A,]2 [C,E,]2 | [B,,G,]2 [B,,B,]2 [E,B,]2 [D,=B,]2 | %3
 [C,C]2 [F,D]2 [G,E]2 [G,,D]2 x | [C,C]6 [E,G,]2 | [C,G,]2 [G,B,]2 A,2 [G,B,]2 | %6
 [F,B,]2 [E,B,]2 [B,,B,]2 [A,,E,]2 | [G,,B,]2 [A,,C]2 B,,2 z A, x | [E,G,]6 |] %9
V:4
 x2 | x8 | x8 | x9 | x8 | x4 A,2 x2 | x8 | x4 B,3 B,,2 | x6 |] %9

